X:1
T:York, CM
T:Scottish Psalter, 1615
T:York, CM
T:Public Domain
C:Scottish Psalter, 1615
Z:Public Domain
%%score ( 1 2 ) ( 3 4 )
L:1/8
M:4/4
K:F
V:1 treble 
V:2 treble 
V:3 bass 
V:4 bass 
V:1
 [CF]4 [FA]2 [_Ec]2 | [_EB]2 [Dd]2 [DA]2 [Cc]2 | [CG]4 [EG]4 | [FA]2 (EF) [Gc]2 [G=B]2 | [Ec]4 F4 | %5
 [FA]2 [_Ec]2 [EB]2 [Dd]2 | [DA]2 [Cc]2 [CG]4 | [CA]4 [DB]2 [FA]2 | [FG]2 [EG]2 F4 |] %9
V:2
 x8 | x8 | x8 | x2 c2 x4 | x4 F4 | x8 | x8 | x8 | x4 F4 |] %9
V:3
 [F,A,]4 [F,C]2 [C,C]2 | [_E,G,]2 [B,,F,]2 [D,F,]2 [A,,=E,]2 | [C,E,]4 [C,C]4 | %3
 [F,C]2 [A,C]2 [G,D]2 [G,D]2 | [C,C]4 [F,A,]4 | [F,C]2 [C,C]2 [_E,G,]2 [B,,B,]2 | %6
 [D,F,]2 [A,,A,]2 [C,E,]4 | F,4 [B,,F,]2 (A,B,) | [C,C]2 [C,C]2 [F,,A,]4 |] %9
V:4
 x8 | x8 | x8 | x8 | x8 | x8 | x8 | F,4 F,2 x2 | x8 |] %9

